images/twitter-icon-white.svg

<svg height="32" viewBox="0 0 32 32" width="32" xmlns="http://www.w3.org/2000/svg"><path d="m28 8.313c-.883.39-1.832.656-2.828.773 1.016-.609 1.797-1.574 2.164-2.723-.949.563-2.004.973-3.125 1.196-.899-.957-2.18-1.559-3.594-1.559-2.719 0-4.926 2.207-4.926 4.926 0 .387.043.762.129 1.121-4.093-.203-7.722-2.164-10.148-5.145-.426.727-.668 1.575-.668 2.477 0 1.707.867 3.215 2.191 4.098-.808-.028-1.566-.246-2.23-.618v.063c0 2.387 1.695 4.379 3.949 4.828-.414.113-.848.176-1.297.176-.316 0-.629-.031-.926-.09.625 1.957 2.446 3.379 4.598 3.422-1.684 1.32-3.809 2.105-6.113 2.105-.399 0-.789-.023-1.176-.07 2.18 1.399 4.766 2.215 7.547 2.215 9.058 0 14.012-7.504 14.012-14.012 0-.211-.008-.426-.016-.637.961-.695 1.797-1.562 2.457-2.546z" fill="#fff" fill-rule="evenodd"/></svg>

<?xml version="1.0" encoding="UTF-8"?>
<svg width="32px" height="32px" viewBox="0 0 32 32" version="1.1" xmlns="http://www.w3.org/2000/svg" xmlns:xlink="http://www.w3.org/1999/xlink">
    <!-- Generator: Sketch 51.3 (57544) - http://www.bohemiancoding.com/sketch -->
    <title>twitter-icon-white</title>
    <desc>Created with Sketch.</desc>
    <defs></defs>
    <g id="twitter-icon" stroke="none" stroke-width="1" fill="none" fill-rule="evenodd">
        <path d="M28,8.313 C27.117,8.703 26.168,8.969 25.172,9.086 C26.188,8.477 26.969,7.512 27.336,6.363 C26.387,6.926 25.332,7.336 24.211,7.559 C23.312,6.602 22.031,6 20.617,6 C17.898,6 15.691,8.207 15.691,10.926 C15.691,11.313 15.734,11.688 15.82,12.047 C11.727,11.844 8.098,9.883 5.672,6.902 C5.246,7.629 5.004,8.477 5.004,9.379 C5.004,11.086 5.871,12.594 7.195,13.477 C6.387,13.449 5.629,13.231 4.965,12.859 C4.965,12.883 4.965,12.902 4.965,12.922 C4.965,15.309 6.66,17.301 8.914,17.75 C8.5,17.863 8.066,17.926 7.617,17.926 C7.301,17.926 6.988,17.895 6.691,17.836 C7.316,19.793 9.137,21.215 11.289,21.258 C9.605,22.578 7.48,23.363 5.176,23.363 C4.777,23.363 4.387,23.34 4,23.293 C6.18,24.692 8.766,25.508 11.547,25.508 C20.605,25.508 25.559,18.004 25.559,11.496 C25.559,11.285 25.551,11.07 25.543,10.859 C26.504,10.164 27.34,9.297 28,8.313 Z" id="icon" fill="#FFFFFF"></path>
    </g>
</svg>
